packages/icons/src/svg/google-dataflow.svg

<svg xmlns="http://www.w3.org/2000/svg" viewBox="0 0 16 16">
	<path d="M10.375 8.466a.458.458 0 1 1 0-.915.458.458 0 0 1 0 .915zm.396 1.133l-2.095 1.2 1.326.767-.763.386-1.283-.74-1.297.743-.705-.389 1.306-.755-2.077-1.199.001-.871h.758v.478l1.682.972v-.746h.719v.74l1.643-.95v-.502h.785v.866zM5.585 7.551a.458.458 0 1 1 0 .916.458.458 0 0 1 0-.916zm2.859 1.131a.458.458 0 1 1-.916 0 .458.458 0 0 1 .916 0zm-.458-.876a.458.458 0 1 1 .001-.915.458.458 0 0 1-.001.915zM5.183 6.413l2.096-1.2-1.326-.767.763-.386L8 4.8l1.296-.742.705.388-1.306.756 2.076 1.2v.869h-.758v-.478l-1.681-.972v.748h-.72v-.742l-1.644.951v.501h-.785v-.866zm10.621.766s-2.693-4.625-3.184-5.438c-.492-.813-1.119-.83-1.119-.83h-7.02c-.677 0-.965.61-.965.61l-2.88 4.98-.44.745c-.441.745 0 1.575 0 1.575s2.693 4.625 3.184 5.438c.492.812 1.118.83 1.118.83h7.021c.677 0 .965-.609.965-.609s2.88-4.981 3.32-5.727c.441-.744 0-1.574 0-1.574z"/>
</svg>

<svg xmlns="http://www.w3.org/2000/svg" viewBox="0 0 16 16">
  <path d="M10.375,8.466 C10.122,8.466 9.917,8.261 9.917,8.009 C9.917,7.756 10.122,7.551 10.375,7.551 C10.627,7.551 10.833,7.756 10.833,8.009 C10.833,8.261 10.627,8.466 10.375,8.466 Z M10.771,9.599 L8.676,10.799 L10.002,11.566 L9.239,11.952 L7.956,11.212 L6.659,11.955 L5.954,11.566 L7.26,10.811 L5.183,9.612 L5.184,8.741 L5.942,8.741 L5.942,9.219 L7.624,10.191 L7.624,9.445 L8.343,9.445 L8.343,10.185 L9.986,9.235 L9.986,8.733 L10.771,8.733 L10.771,9.599 Z M5.585,7.551 C5.838,7.551 6.043,7.756 6.043,8.009 C6.043,8.261 5.838,8.466 5.585,8.466 C5.333,8.466 5.127,8.261 5.127,8.009 C5.127,7.756 5.333,7.551 5.585,7.551 Z M8.444,8.682 C8.444,8.935 8.239,9.14 7.986,9.14 C7.734,9.14 7.529,8.935 7.529,8.682 C7.529,8.429 7.734,8.224 7.986,8.224 C8.239,8.224 8.444,8.429 8.444,8.682 Z M7.986,7.806 C7.734,7.806 7.529,7.601 7.529,7.348 C7.529,7.095 7.734,6.89 7.986,6.89 C8.239,6.89 8.444,7.095 8.444,7.348 C8.444,7.601 8.239,7.806 7.986,7.806 Z M5.183,6.413 L7.279,5.213 L5.953,4.446 L6.716,4.06 L8,4.8 L9.296,4.058 L10.001,4.446 L8.695,5.202 L10.771,6.402 L10.771,7.271 L10.013,7.271 L10.013,6.793 L8.332,5.821 L8.332,6.569 L7.612,6.569 L7.612,5.827 L5.968,6.778 L5.968,7.279 L5.183,7.279 L5.183,6.413 Z M15.804,7.179 C15.804,7.179 13.111,2.554 12.62,1.741 C12.128,0.928 11.501,0.911 11.501,0.911 L4.481,0.911 C3.804,0.911 3.516,1.521 3.516,1.521 L0.636,6.501 L0.196,7.246 C-0.245,7.991 0.196,8.821 0.196,8.821 C0.196,8.821 2.889,13.446 3.38,14.259 C3.872,15.071 4.498,15.089 4.498,15.089 L11.519,15.089 C12.196,15.089 12.484,14.48 12.484,14.48 C12.484,14.48 15.364,9.499 15.804,8.753 C16.245,8.009 15.804,7.179 15.804,7.179 Z"/>
</svg>
